X:352
T: Diexin dehua yaodui dang jiang
N: C1853
O: China,Qinghai Minhe
S: I, 221]
N: Hui Han
R: Shange, Gushanling]
M: 2/4
L: 1/16
K: A
F4 | E2E2F2AB | B2FAF2E2 | A2F2B2B2 | B8 |
B2Bee2f2 | BeFAFzA2 | B2B2B3f | e8 | e2z6 |
z2FEF2A2 | B2B2B4 | B3ee2ef | B2B2BeFA | F2
AAA2A2 | F2A2B2FA | F4F3E | E6F2 | E4

@@@ Tune index: 6907
